assets/logos/color_logo/daphne.svg

<?xml version="1.0" encoding="UTF-8"?>
<svg width="457px" height="96px" viewBox="0 0 457 96" version="1.1" xmlns="http://www.w3.org/2000/svg" xmlns:xlink="http://www.w3.org/1999/xlink">
    <title>mainlogo</title>
    <g id="Page-1" stroke="none" stroke-width="1" fill="none" fill-rule="evenodd">
        <g id="mainlogo" fill="#FFFFFF" fill-rule="nonzero">
            <polygon id="Path" points="14.9373047 -3.55271368e-14 41.2737304 -3.55271368e-14 31.8398439 55.4239257 6.28925778 55.4239257"></polygon>
            <polygon id="Path" points="4.71757806 63.6809571 30.6604493 63.6809571 29.8746094 69.9676757 51.4947267 69.9676757 48.3488281 92.3723632 -3.55271368e-13 92.3723632"></polygon>
            <polygon id="Path" points="342.768359 4.71757806 366.744727 4.71757806 364.388477 20.4394531 340.40957 20.4394531"></polygon>
            <polygon id="Path" points="339.426953 27.1222656 363.40332 27.1222656 359.081836 56.2110351 335.10293 56.2110351"></polygon>
            <polygon id="Path" points="333.924805 63.6809571 357.901172 63.6809571 353.577148 92.3723632 329.598242 92.3723632"></polygon>
            <polygon id="Path" points="224.253808 63.6809571 248.231445 63.6809571 243.907422 92.3723632 219.929785 92.3723632"></polygon>
            <path d="M77.6318358,63.6809571 C77.4299804,65.5344726 77.2903318,67.895801 77.4985351,70.0184571 C77.7841797,72.608301 78.7896483,74.680176 81.2474608,74.680176 C84.4847656,74.680176 86.4347656,71.8313479 87.5532226,68.469629 C88.1854493,66.717676 88.6374024,65.2704101 88.9649415,63.6200196 L111.309961,63.5590821 L106.757422,92.4536132 L86.8917969,92.4536132 L88.0584962,86.7000976 C83.1365236,92.9614257 79.194629,94.469629 70.9109378,94.469629 C55.0913087,94.469629 52.5636722,76.919629 53.5666019,63.6860351 L77.6318358,63.6809571 L77.6318358,63.6809571 Z" id="Path"></path>
            <path d="M89.9615233,56.2110351 C89.9792967,54.5657226 89.9577149,53.5907226 89.8790038,52.4379882 C89.647949,49.4571288 88.7148436,46.8710936 85.7390622,46.8710936 C82.6325193,46.8710936 80.7739254,49.9776365 79.4726559,53.7329101 C79.2873042,54.3168946 79.1248042,54.8805665 78.3948238,56.200879 L54.1213863,56.1856446 C57.3434571,42.3490233 64.5950196,26.1625 80.3956054,25.8362304 C84.7094726,25.7473632 92.7671875,26.3364257 95.9194335,32.5 L96.6075193,32.6333007 L97.6269528,27.0638672 L117.095215,27.0638672 L112.61123,56.2110351 L89.9615233,56.2110351 L89.9615233,56.2110351 Z" id="Path"></path>
            <path d="M118.51582,56.2110351 C117.066016,53.3165038 116.460449,49.8532226 117.036816,45.7310547 C119.008398,31.6214844 129.615332,24.4600587 145.535254,24.4600587 C152.394531,24.4600587 157.162891,26.0710939 162.647266,29.4353517 L160.03584,47.5528321 C156.05459,44.2215821 148.844922,42.4518554 144.572949,42.4518554 C142.761328,42.4518554 140.510449,42.8796875 139.956934,45.0302733 C139.150781,48.1520507 142.64834,49.8684568 146.902539,51.3715818 C150.42041,52.6157224 153.410156,54.1543943 155.796875,56.1805663 L118.51582,56.2110351 L118.51582,56.2110351 Z" id="Path"></path>
            <path d="M161.235547,63.7418946 C162.318457,66.7125976 162.642187,70.2875976 162.115332,74.0606446 C159.960937,89.4625976 146.743848,95.2567385 132.636817,95.2567385 C123.317187,95.2567385 119.396875,93.5200196 111.986621,89.1172854 L115.300098,68.8454104 C117.823926,72.080176 126.376758,77.239551 132.099805,76.9450198 C134.297363,76.833301 138.735645,75.3200198 139.078418,72.8622073 C139.422461,70.4043948 138.364942,68.5915043 132.84375,66.8344729 C130.260254,66.0168948 127.804981,65.1485354 125.630274,63.8079104 L161.235547,63.7418946 L161.235547,63.7418946 Z" id="Path"></path>
            <path d="M187.480567,63.6911132 C186.525879,69.4700196 186.30752,78.5446288 191.576074,79.1844726 C194.969531,79.600879 198.506445,76.8485351 199.579199,69.8762696 L220.89209,69.8762696 C217.177442,91.783301 204.338672,95.7594726 189.066211,95.647754 C172.426465,95.525879 162.464453,81.9774415 163.685742,63.6606446 L187.480567,63.6911132 L187.480567,63.6911132 Z" id="Path"></path>
            <path d="M411.150391,56.2059571 C414.275976,39.0330078 422.642188,25.0046875 446.565234,24.4600587 C451.259961,24.3534182 454.992383,25.9428712 456.944922,27.0778321 L453.852344,45.6726564 C444.358789,41.8234375 439.194336,49.3796878 437.371289,56.236426 L411.150391,56.2059571 L411.150391,56.2059571 Z" id="Path"></path>
            <path d="M436.822852,63.6911132 C437.462696,67.9719726 439.928125,71.9633788 444.729492,71.9633788 L449.949805,71.5672849 L446.908008,92.3774413 C443.200976,93.3575193 439.664062,93.9465818 434.865234,93.8805663 C416.601758,93.6215818 409.116602,80.1950193 410.17793,63.6657224 L436.822852,63.6911132 L436.822852,63.6911132 Z" id="Path"></path>
            <path d="M301.904688,63.6911132 C299.045703,68.3223632 296.186719,71.7348632 289.701953,71.1458007 L290.82168,63.6708007 L265.570703,63.6860351 L261.005469,92.3723632 L286.556054,92.3723632 C307.698828,92.3723632 322.214648,83.1250976 329.329101,63.6250976 L301.904688,63.6911132 L301.904688,63.6911132 Z" id="Path"></path>
            <path d="M291.773828,56.2262696 L296.77832,23.9789064 C306.998047,23.9789064 309.354297,31.8398439 307.389062,45.9900392 C306.899023,49.5282226 306.210937,53.2606446 305.289258,56.282129 L331.875781,56.3125979 C332.838086,52.3313479 333.25957,47.9121097 333.726758,43.2389651 C337.263672,7.8609375 318.004883,6.03961325e-14 298.743555,6.03961325e-14 L274.764648,6.03961325e-14 L271.423242,25.1570314 C267.492773,25.9428712 257.862109,27.1222658 252.750976,34.0018557 C251.768359,34.9844729 251.179297,34.5909182 251.374804,33.4115236 L252.357422,27.1222658 L229.757226,27.1222658 L225.433203,56.2110354 L249.412109,56.2110354 C250.392187,52.0825198 261.203516,45.9900394 267.886328,49.1346682 L266.764063,56.1856448 L291.773828,56.2262696 L291.773828,56.2262696 Z" id="Path"></path>
            <path d="M364.586523,56.2110351 C363.136719,53.3165038 362.529883,49.8532226 363.10625,45.7310547 C365.079102,31.6214844 375.684766,24.4600587 391.604687,24.4600587 C398.465234,24.4600587 403.233594,26.0710939 408.717969,29.4353517 L406.105274,47.5528321 C402.124024,44.2215821 394.913086,42.4518554 390.642383,42.4518554 C388.832031,42.4518554 386.579883,42.8796875 386.026367,45.0302733 C385.221485,48.1520507 388.717774,49.8684568 392.973242,51.3715818 C396.489844,52.6157224 399.48086,54.1543943 401.865039,56.1805663 L364.586523,56.2110351 L364.586523,56.2110351 Z" id="Path"></path>
            <path d="M407.303711,63.7418946 C408.387891,66.7125976 408.710351,70.2875976 408.184766,74.0606446 C406.031641,89.4625976 392.813281,95.2567385 378.70625,95.2567385 C369.385352,95.2567385 365.465039,93.5200196 358.056055,89.1172854 L361.369531,68.8454104 C363.893359,72.080176 372.444922,77.239551 378.167969,76.9450198 C380.366797,76.833301 384.805078,75.3200198 385.147852,72.8622073 C385.493164,70.4043948 384.434375,68.5915043 378.914453,66.8344729 C376.329688,66.0168948 373.874414,65.1485354 371.700977,63.8079104 L407.303711,63.7418946 L407.303711,63.7418946 Z" id="Path"></path>
            <polygon id="Path" points="443.947461 12.3817382 448.896094 12.3817382 448.896094 13.1117189 446.834375 13.1117189 446.834375 18.4754882 446.00918 18.4754882 446.00918 13.1117189 443.947461 13.1117189"></polygon>
            <path d="M454.675,18.4754882 L454.675,14.8776368 C454.675,14.6986328 454.692773,13.9267578 454.692773,13.3580078 L454.675,13.3580078 L452.961133,18.4754882 L452.146094,18.4754882 L450.432226,13.3668943 L450.416992,13.3668943 C450.416992,13.9267575 450.432226,14.6986325 450.432226,14.8776365 L450.432226,18.4754882 L449.634961,18.4754882 L449.634961,12.3817382 L450.815625,12.3817382 L452.554883,17.5322264 L452.570117,17.5322264 L454.301758,12.3817382 L455.472266,12.3817382 L455.472266,18.4754882 L454.675,18.4754882 L454.675,18.4754882 Z" id="Path"></path>
            <path d="M197.108692,24.4600585 C177.868946,24.5908203 168.400781,38.0922851 164.664551,56.2008788 L222.757031,56.2161132 C223.399414,47.8143554 223.095996,39.6779297 220.556934,35.9848632 C216.128808,29.5419922 210.299121,24.3711915 197.108692,24.4600585 L197.108692,24.4600585 Z M197.483203,39.6284179 C202.01416,39.6284179 202.750488,44.5465821 202.355664,48.2993163 L190.576953,48.2993163 C190.93623,44.8055665 193.2125,39.6284179 197.483203,39.6284179 L197.483203,39.6284179 Z" id="Shape"></path>
        </g>
    </g>
</svg>

<?xml version="1.0" encoding="UTF-8" standalone="no"?>
<svg
   xmlns:dc="http://purl.org/dc/elements/1.1/"
   xmlns:cc="http://creativecommons.org/ns#"
   xmlns:rdf="http://www.w3.org/1999/02/22-rdf-syntax-ns#"
   xmlns:svg="http://www.w3.org/2000/svg"
   xmlns="http://www.w3.org/2000/svg"
   xmlns:sodipodi="http://sodipodi.sourceforge.net/DTD/sodipodi-0.dtd"
   xmlns:inkscape="http://www.inkscape.org/namespaces/inkscape"
   width="500"
   height="200"
   viewBox="0 0 500 200"
   version="1.1"
   id="svg164"
   sodipodi:docname="daphne.svg"
   inkscape:version="0.92.5 (2060ec1f9f, 2020-04-08)">
  <metadata
     id="metadata170">
    <rdf:RDF>
      <cc:Work
         rdf:about="">
        <dc:format>image/svg+xml</dc:format>
        <dc:type
           rdf:resource="http://purl.org/dc/dcmitype/StillImage" />
        <dc:title>mainlogo</dc:title>
      </cc:Work>
    </rdf:RDF>
  </metadata>
  <defs
     id="defs168" />
  <sodipodi:namedview
     pagecolor="#ffffff"
     bordercolor="#666666"
     borderopacity="1"
     objecttolerance="10"
     gridtolerance="10"
     guidetolerance="10"
     inkscape:pageopacity="0"
     inkscape:pageshadow="2"
     inkscape:window-width="1366"
     inkscape:window-height="740"
     id="namedview166"
     showgrid="false"
     inkscape:pagecheckerboard="true"
     inkscape:zoom="1.2780361"
     inkscape:cx="228.5"
     inkscape:cy="48"
     inkscape:window-x="0"
     inkscape:window-y="0"
     inkscape:window-maximized="1"
     inkscape:current-layer="svg164" />
  <title
     id="title122">mainlogo</title>
  <g
     id="Page-1"
     style="fill:none;fill-rule:evenodd;stroke:none;stroke-width:1"
     transform="matrix(1.092467,0,0,1.092467,1.564901,53.685653)">
    <g
       id="mainlogo"
       style="fill:#ffffff;fill-rule:nonzero">
      <polygon
         id="Path"
         points="31.839844,55.423926 6.2892578,55.423926 14.937305,-3.5527137e-14 41.27373,-3.5527137e-14 " />
      <polygon
         id="polygon125"
         points="4.7175781,63.680957 30.660449,63.680957 29.874609,69.967676 51.494727,69.967676 48.348828,92.372363 -3.5527137e-13,92.372363 " />
      <polygon
         id="polygon127"
         points="364.38848,20.439453 340.40957,20.439453 342.76836,4.7175781 366.74473,4.7175781 " />
      <polygon
         id="polygon129"
         points="359.08184,56.211035 335.10293,56.211035 339.42695,27.122266 363.40332,27.122266 " />
      <polygon
         id="polygon131"
         points="353.57715,92.372363 329.59824,92.372363 333.9248,63.680957 357.90117,63.680957 " />
      <polygon
         id="polygon133"
         points="243.90742,92.372363 219.92979,92.372363 224.25381,63.680957 248.23145,63.680957 " />
      <path
         d="m 77.631836,63.680957 c -0.201856,1.853516 -0.341504,4.214844 -0.133301,6.3375 0.285645,2.589844 1.291113,4.661719 3.748926,4.661719 3.237305,0 5.187305,-2.848828 6.305762,-6.210547 0.632226,-1.751953 1.084179,-3.199219 1.411718,-4.849609 l 22.345019,-0.06094 -4.55254,28.894531 H 86.891797 l 1.166699,-5.753515 c -4.921972,6.261328 -8.863867,7.769531 -17.147558,7.769531 -15.819629,0 -18.347266,-17.55 -17.344336,-30.783594 l 24.065234,-0.0051 z"
         id="path135"
         inkscape:connector-curvature="0" />
      <path
         d="m 89.961523,56.211035 c 0.01777,-1.645312 -0.0038,-2.620312 -0.08252,-3.773047 -0.231055,-2.980859 -1.16416,-5.566894 -4.139942,-5.566894 -3.106543,0 -4.965137,3.106543 -6.266406,6.861816 -0.185352,0.583985 -0.347852,1.147656 -1.077832,2.467969 L 54.121386,56.185645 C 57.343457,42.349023 64.59502,26.1625 80.395605,25.83623 84.709473,25.747363 92.767188,26.336426 95.919433,32.5 l 0.688086,0.133301 1.019434,-5.569434 h 19.468257 l -4.48398,29.147168 z"
         id="path137"
         inkscape:connector-curvature="0" />
      <path
         d="m 118.51582,56.211035 c -1.4498,-2.894531 -2.05537,-6.357812 -1.479,-10.47998 1.97158,-14.109571 12.57851,-21.270996 28.49843,-21.270996 6.85928,0 11.62764,1.611035 17.11202,4.975293 l -2.61143,18.11748 c -3.98125,-3.33125 -11.19092,-5.100977 -15.46289,-5.100977 -1.81162,0 -4.0625,0.427833 -4.61602,2.578418 -0.80615,3.121778 2.69141,4.838184 6.94561,6.341309 3.51787,1.24414 6.50762,2.782812 8.89433,4.808984 l -37.28105,0.03047 z"
         id="path139"
         inkscape:connector-curvature="0" />
      <path
         d="m 161.23555,63.741895 c 1.08291,2.970703 1.40664,6.545703 0.87978,10.31875 -2.15439,15.401953 -15.37148,21.196093 -29.47851,21.196093 -9.31963,0 -13.23995,-1.736718 -20.6502,-6.139453 L 115.3001,68.84541 c 2.52383,3.234766 11.07666,8.394141 16.7997,8.09961 2.19756,-0.111719 6.63584,-1.625 6.97862,-4.082813 0.34404,-2.457812 -0.71348,-4.270703 -6.23467,-6.027734 -2.5835,-0.817578 -5.03877,-1.685938 -7.21348,-3.026563 l 35.60528,-0.06602 z"
         id="path141"
         inkscape:connector-curvature="0" />
      <path
         d="m 187.48057,63.691113 c -0.95469,5.778907 -1.17305,14.853516 4.0955,15.49336 3.39346,0.416406 6.93038,-2.335938 8.00313,-9.308203 h 21.31289 C 217.17744,91.783301 204.33867,95.759473 189.06621,95.647754 172.42646,95.525879 162.46445,81.977441 163.68574,63.660645 l 23.79483,0.03047 z"
         id="path143"
         inkscape:connector-curvature="0" />
      <path
         d="m 411.15039,56.205957 c 3.12559,-17.172949 11.4918,-31.20127 35.41484,-31.745898 4.69473,-0.106641 8.42715,1.482812 10.37969,2.617773 l -3.09258,18.594824 c -9.49355,-3.849219 -14.658,3.707032 -16.48105,10.56377 l -26.2209,-0.03047 z"
         id="path145"
         inkscape:connector-curvature="0" />
      <path
         d="m 436.82285,63.691113 c 0.63985,4.28086 3.10528,8.272266 7.90664,8.272266 l 5.22032,-0.396094 -3.0418,20.810156 c -3.70703,0.980078 -7.24395,1.569141 -12.04278,1.503125 -18.26347,-0.258984 -25.74863,-13.685547 -24.6873,-30.214844 z"
         id="path147"
         inkscape:connector-curvature="0" />
      <path
         d="m 301.90469,63.691113 c -2.85899,4.63125 -5.71797,8.04375 -12.20274,7.454688 l 1.11973,-7.475 -25.25098,0.01523 -4.56523,28.686328 h 25.55058 c 21.14278,0 35.6586,-9.247265 42.77305,-28.747265 l -27.42441,0.06602 z"
         id="path149"
         inkscape:connector-curvature="0" />
      <path
         d="m 291.77383,56.22627 5.00449,-32.247364 c 10.21973,0 12.57598,7.860938 10.61074,22.011133 -0.49004,3.538184 -1.17812,7.270606 -2.0998,10.29209 l 26.58652,0.03047 c 0.96231,-3.98125 1.38379,-8.400488 1.85098,-13.073633 C 337.26367,7.8609375 318.00488,0 298.74356,0 h -23.97891 l -3.34141,25.157031 c -3.93047,0.78584 -13.56113,1.965235 -18.67226,8.844825 -0.98262,0.982617 -1.57168,0.589062 -1.37618,-0.590332 l 0.98262,-6.289258 h -22.60019 l -4.32403,29.088769 h 23.97891 c 0.98008,-4.128515 11.79141,-10.220996 18.47422,-7.076367 l -1.12227,7.050977 25.00977,0.04062 z"
         id="path151"
         inkscape:connector-curvature="0" />
      <path
         d="m 364.58652,56.211035 c -1.4498,-2.894531 -2.05664,-6.357812 -1.48027,-10.47998 1.97285,-14.109571 12.57852,-21.270996 28.49844,-21.270996 6.86054,0 11.6289,1.611035 17.11328,4.975293 l -2.6127,18.11748 c -3.98125,-3.33125 -11.19218,-5.100977 -15.46289,-5.100977 -1.81035,0 -4.0625,0.427833 -4.61601,2.578418 -0.80489,3.121778 2.6914,4.838184 6.94687,6.341309 3.5166,1.24414 6.50762,2.782812 8.8918,4.808984 l -37.27852,0.03047 z"
         id="path153"
         inkscape:connector-curvature="0" />
      <path
         d="m 407.30371,63.741895 c 1.08418,2.970703 1.40664,6.545703 0.88106,10.31875 -2.15313,15.401953 -15.37149,21.196093 -29.47852,21.196093 -9.3209,0 -13.24121,-1.736718 -20.65019,-6.139453 l 3.31347,-20.271875 c 2.52383,3.234766 11.07539,8.394141 16.79844,8.09961 2.19883,-0.111719 6.63711,-1.625 6.97988,-4.082813 0.34531,-2.457812 -0.71348,-4.270703 -6.2334,-6.027734 -2.58476,-0.817578 -5.04004,-1.685938 -7.21347,-3.026563 l 35.60273,-0.06602 z"
         id="path155"
         inkscape:connector-curvature="0" />
      <polygon
         id="polygon157"
         points="446.00918,13.111719 443.94746,13.111719 443.94746,12.381738 448.89609,12.381738 448.89609,13.111719 446.83438,13.111719 446.83438,18.475488 446.00918,18.475488 " />
      <path
         d="m 454.675,18.475488 v -3.597851 c 0,-0.179004 0.0178,-0.950879 0.0178,-1.519629 h -0.0178 l -1.71387,5.11748 h -0.81504 l -1.71386,-5.108594 h -0.0152 c 0,0.559864 0.0152,1.331739 0.0152,1.510743 v 3.597851 h -0.79727 v -6.09375 h 1.18066 l 1.73926,5.150488 h 0.0152 l 1.73164,-5.150488 h 1.17051 v 6.09375 z"
         id="path159"
         inkscape:connector-curvature="0" />
      <path
         d="m 197.10869,24.460058 c -19.23974,0.130762 -28.70791,13.632227 -32.44414,31.740821 l 58.09248,0.01523 c 0.64238,-8.401758 0.33897,-16.538183 -2.2001,-20.23125 -4.42812,-6.442871 -10.25781,-11.613672 -23.44824,-11.524805 z m 0.37451,15.16836 c 4.53096,0 5.26729,4.918164 4.87246,8.670898 h -11.77871 c 0.35928,-3.49375 2.63555,-8.670898 6.90625,-8.670898 z"
         id="Shape"
         inkscape:connector-curvature="0" />
    </g>
  </g>
</svg>
